X: 14
T:The Artusi Polka
% Nottingham Music Database
S:John Goodacre 1985, via PR
M:4/4
L:1/4
K:D
"A7"AB/2c/2 d/2e/2f/2g/2|"D"af de/2f/2|"A7"eg AB/2c/2|"D"df a2|
"A7"AB/2c/2 d/2e/2f/2g/2|"D"af de/2f/2|"Em"eg "A7"cf/2e/2|"D"d2 d2::
"D"af dA|"A7"ge c2|"A7"ge cA|"D"df "A7"A2|"D"af dA|"A7"ge c2|\
"Em"eg "A7"cf/2e/2|"D"d2 d2:|


